public/cloud-icons/azure/data/analysis-service.svg

<?xml version="1.0" encoding="UTF-8" standalone="no"?>
<!-- Generated by Microsoft Visio, SVG Export Analysis Service.svg Page-1 -->

<svg
   xmlns:dc="http://purl.org/dc/elements/1.1/"
   xmlns:cc="http://creativecommons.org/ns#"
   xmlns:rdf="http://www.w3.org/1999/02/22-rdf-syntax-ns#"
   xmlns:svg="http://www.w3.org/2000/svg"
   xmlns="http://www.w3.org/2000/svg"
   xmlns:xlink="http://www.w3.org/1999/xlink"
   xmlns:sodipodi="http://sodipodi.sourceforge.net/DTD/sodipodi-0.dtd"
   xmlns:inkscape="http://www.inkscape.org/namespaces/inkscape"
   width="56.699368"
   height="42.5219"
   viewBox="0 0 56.699367 42.521899"
   xml:space="preserve"
   class="st4"
   version="1.1"
   id="svg55"
   sodipodi:docname="Analysis Service.svg"
   style="font-size:12px;overflow:visible;color-interpolation-filters:sRGB;fill:none;fill-rule:evenodd;stroke-linecap:square;stroke-miterlimit:3"
   inkscape:version="0.92.5 (2060ec1f9f, 2020-04-08)"><metadata
   id="metadata59"><rdf:RDF><cc:Work
       rdf:about=""><dc:format>image/svg+xml</dc:format><dc:type
         rdf:resource="http://purl.org/dc/dcmitype/StillImage" /></cc:Work></rdf:RDF></metadata><sodipodi:namedview
   pagecolor="#ffffff"
   bordercolor="#666666"
   borderopacity="1"
   objecttolerance="10"
   gridtolerance="10"
   guidetolerance="10"
   inkscape:pageopacity="0"
   inkscape:pageshadow="2"
   inkscape:window-width="640"
   inkscape:window-height="480"
   id="namedview57"
   showgrid="false"
   inkscape:zoom="2.1350703"
   inkscape:cx="28.350266"
   inkscape:cy="21.256798"
   inkscape:window-x="0"
   inkscape:window-y="0"
   inkscape:window-maximized="0"
   inkscape:current-layer="svg55" />
	<style
   type="text/css"
   id="style2">
	<![CDATA[
		.st1 {fill:url(#grad0-6);stroke:none;stroke-linecap:butt;stroke-width:34}
		.st2 {fill:#773adc;stroke:none;stroke-linecap:butt;stroke-width:34}
		.st3 {fill:#ffffff;stroke:none;stroke-linecap:butt;stroke-width:34}
		.st4 {fill:none;fill-rule:evenodd;font-size:12px;overflow:visible;stroke-linecap:square;stroke-miterlimit:3}
	]]>
	</style>

	<defs
   id="Patterns_And_Gradients">
		<linearGradient
   id="grad0-6"
   x1="0"
   y1="0"
   x2="1"
   y2="0"
   gradientTransform="rotate(90,0.5,0.5)">
			<stop
   offset="0"
   stop-color="#32d4f5"
   stop-opacity="1"
   id="stop4" />
			<stop
   offset="1"
   stop-color="#198ab3"
   stop-opacity="1"
   id="stop6" />
		</linearGradient>
	<linearGradient
   inkscape:collect="always"
   xlink:href="#grad0-6"
   id="linearGradient4569"
   gradientTransform="scale(1.1514735,0.86845247)"
   x1="-0.003270592"
   y1="107.23673"
   x2="20.043883"
   y2="107.23673"
   gradientUnits="userSpaceOnUse" /><linearGradient
   inkscape:collect="always"
   xlink:href="#grad0-6"
   id="linearGradient4571"
   gradientTransform="scale(1.1514735,0.86845247)"
   x1="-0.003270592"
   y1="107.23673"
   x2="20.043883"
   y2="107.23673"
   gradientUnits="userSpaceOnUse" /><linearGradient
   inkscape:collect="always"
   xlink:href="#grad0-6"
   id="linearGradient4573"
   gradientTransform="scale(1.1513797,0.86852319)"
   x1="-3.0438286e-06"
   y1="107.228"
   x2="20.045518"
   y2="107.228"
   gradientUnits="userSpaceOnUse" /></defs>
	<g
   id="g53"
   transform="translate(-33.996234,-34.0024)">
		<title
   id="title10">Page-1</title>
		<g
   id="group21142-1"
   transform="translate(34,-34.0157)">
			<title
   id="title12">Analysis Service.21142</title>
			<g
   id="group21143-2">
				<title
   id="title14">Icon-analytics-148</title>
				<g
   id="shape21144-3"
   transform="translate(0,-25.1119)">
					<title
   id="title16">Sheet.21144</title>
					<path
   d="m 0,109.62 a 0.933787,0.917948 -180 0 0 0.933766,0.91793 L 22.14,110.54 a 0.933787,0.917948 -180 0 0 0.933766,-0.91793 L 23.08,94.05 A 0.933787,0.917948 -180 0 0 22.146234,93.132073 L 0.93,93.13 a 0.933787,0.917948 -180 0 0 -0.933766,0.917927 z"
   class="st1"
   id="path18"
   inkscape:connector-curvature="0"
   style="fill:url(#linearGradient4569);stroke:none;stroke-width:34;stroke-linecap:butt" />
				</g>
				<g
   id="shape21145-7"
   transform="translate(33.6156,-15.0802)">
					<title
   id="title21">Sheet.21145</title>
					<path
   d="m 0,109.62 a 0.933787,0.917948 -180 0 0 0.933766,0.91793 L 22.14,110.54 a 0.933787,0.917948 -180 0 0 0.933766,-0.91793 L 23.08,94.05 A 0.933787,0.917948 -180 0 0 22.146234,93.132073 L 0.93,93.13 a 0.933787,0.917948 -180 0 0 -0.933766,0.917927 z"
   class="st1"
   id="path23"
   inkscape:connector-curvature="0"
   style="fill:url(#linearGradient4571);stroke:none;stroke-width:34;stroke-linecap:butt" />
				</g>
				<g
   id="shape21146-10"
   transform="translate(4.40204)">
					<title
   id="title26">Sheet.21146</title>
					<path
   d="m 0,109.16 a 1.40068,1.37692 -180 0 0 1.4,1.38 h 20.28 a 1.40068,1.37692 -180 0 0 1.4,-1.38 V 94.5 a 1.40068,1.37692 -180 0 0 -1.4,-1.37 H 1.4 A 1.40068,1.37692 -180 0 0 0,94.5 Z"
   class="st1"
   id="path28"
   inkscape:connector-curvature="0"
   style="fill:url(#linearGradient4573);stroke:none;stroke-width:34;stroke-linecap:butt" />
				</g>
				<g
   id="shape21147-13"
   transform="translate(10.4715,-6.95002)">
					<title
   id="title31">Sheet.21147</title>
					<path
   d="M 31.71,95.95 32.48,93.85 3.94,83.52 3.17,85.59 Z m 1.77,-0.3 -1.06,-1.97 -26.92,13.94 1.04,1.96 z M 4.54,110.54 6.77,110.14 2.23,84.87 0,85.26 Z"
   class="st2"
   id="path33"
   inkscape:connector-curvature="0"
   style="fill:#773adc;stroke:none;stroke-width:34;stroke-linecap:butt" />
				</g>
				<g
   id="shape21148-15"
   transform="rotate(-32.41,-10.471932,25.415653)">
					<title
   id="title36">Sheet.21148</title>
					<ellipse
   cx="3.60167"
   cy="106.995"
   rx="3.60167"
   ry="3.54058"
   class="st3"
   id="ellipse38"
   style="fill:#ffffff;stroke:none;stroke-width:34;stroke-linecap:butt" />
				</g>
				<g
   id="shape21149-17"
   transform="rotate(-32.41,-44.525242,78.17373)">
					<title
   id="title41">Sheet.21149</title>
					<ellipse
   cx="3.60167"
   cy="106.995"
   rx="3.60167"
   ry="3.54058"
   class="st3"
   id="ellipse43"
   style="fill:#ffffff;stroke:none;stroke-width:34;stroke-linecap:butt" />
				</g>
				<g
   id="shape21150-19"
   transform="rotate(-32.41,0.86002197,83.098899)">
					<title
   id="title46">Sheet.21150</title>
					<ellipse
   cx="3.60167"
   cy="106.995"
   rx="3.60167"
   ry="3.54058"
   class="st3"
   id="ellipse48"
   style="fill:#ffffff;stroke:none;stroke-width:34;stroke-linecap:butt" />
				</g>
			</g>
		</g>
	</g>
</svg>

<svg xmlns="http://www.w3.org/2000/svg" xmlns:xlink="http://www.w3.org/1999/xlink" xml:space="preserve" width="56.699" height="42.522" style="font-size:12px;overflow:visible;color-interpolation-filters:sRGB;fill-rule:evenodd;stroke-linecap:square;stroke-miterlimit:3" viewBox="0 0 56.699 42.522"><defs><linearGradient id="a" x1="0" x2="1" y1="0" y2="0" gradientTransform="rotate(90 .5 .5)"><stop offset="0" stop-color="#32d4f5"/><stop offset="1" stop-color="#198ab3"/></linearGradient><linearGradient xlink:href="#a" id="b" x1="-.003" x2="20.044" y1="107.237" y2="107.237" gradientTransform="scale(1.15147 .86845)" gradientUnits="userSpaceOnUse"/><linearGradient xlink:href="#a" id="c" x1="-.003" x2="20.044" y1="107.237" y2="107.237" gradientTransform="scale(1.15147 .86845)" gradientUnits="userSpaceOnUse"/><linearGradient xlink:href="#a" id="d" x1="0" x2="20.046" y1="107.228" y2="107.228" gradientTransform="scale(1.15138 .86852)" gradientUnits="userSpaceOnUse"/></defs><g transform="translate(-33.996 -34.002)"><title>Page-1</title><g transform="translate(34 -34.016)"><title>Analysis Service.21142</title><title>Icon-analytics-148</title><g transform="translate(0 -25.112)"><title>Sheet.21144</title><path d="M0 109.62a.934.918-180 0 0 .934.918l21.206.002a.934.918-180 0 0 .934-.918l.006-15.572a.934.918-180 0 0-.934-.918L.93 93.13a.934.918-180 0 0-.934.918z" style="fill:url(#b);stroke:none;stroke-width:34;stroke-linecap:butt"/></g><g transform="translate(33.616 -15.08)"><title>Sheet.21145</title><path d="M0 109.62a.934.918-180 0 0 .934.918l21.206.002a.934.918-180 0 0 .934-.918l.006-15.572a.934.918-180 0 0-.934-.918L.93 93.13a.934.918-180 0 0-.934.918z" style="fill:url(#c);stroke:none;stroke-width:34;stroke-linecap:butt"/></g><g transform="translate(4.402)"><title>Sheet.21146</title><path d="M0 109.16a1.4 1.377-180 0 0 1.4 1.38h20.28a1.4 1.377-180 0 0 1.4-1.38V94.5a1.4 1.377-180 0 0-1.4-1.37H1.4A1.4 1.377-180 0 0 0 94.5Z" style="fill:url(#d);stroke:none;stroke-width:34;stroke-linecap:butt"/></g><g transform="translate(10.472 -6.95)"><title>Sheet.21147</title><path d="m31.71 95.95.77-2.1L3.94 83.52l-.77 2.07Zm1.77-.3-1.06-1.97L5.5 107.62l1.04 1.96zM4.54 110.54l2.23-.4-4.54-25.27-2.23.39Z" style="fill:#773adc;stroke:none;stroke-width:34;stroke-linecap:butt"/></g><g transform="rotate(-32.41 -10.472 25.416)"><title>Sheet.21148</title><ellipse cx="3.602" cy="106.995" rx="3.602" ry="3.541" style="fill:#fff;stroke:none;stroke-width:34;stroke-linecap:butt"/></g><g transform="rotate(-32.41 -44.525 78.174)"><title>Sheet.21149</title><ellipse cx="3.602" cy="106.995" rx="3.602" ry="3.541" style="fill:#fff;stroke:none;stroke-width:34;stroke-linecap:butt"/></g><g transform="rotate(-32.41 .86 83.099)"><title>Sheet.21150</title><ellipse cx="3.602" cy="106.995" rx="3.602" ry="3.541" style="fill:#fff;stroke:none;stroke-width:34;stroke-linecap:butt"/></g></g></g></svg>
